src/pos-icons/sync-off.svg

<svg height="24" viewBox="0 0 24 24" width="24" xmlns="http://www.w3.org/2000/svg"><path d="m20 4h-6v6l2.24-2.24c1.08 1.09 1.76 2.58 1.76 4.24 0 1-.25 1.94-.68 2.77l1.46 1.46c.77-1.23 1.22-2.67 1.22-4.23 0-2.21-.91-4.2-2.36-5.64zm-17.14 1.41 2.36 2.36c-.77 1.23-1.22 2.67-1.22 4.23 0 2.21.91 4.2 2.36 5.64l-2.36 2.36h6v-6l-2.24 2.24c-1.08-1.09-1.76-2.58-1.76-4.24 0-1 .25-1.94.68-2.77l8.08 8.08c-.26.13-.5.25-.76.34v2.09c.79-.21 1.54-.54 2.22-.96l2.36 2.36 1.27-1.27-15.71-15.73zm7.14.94v-2.09c-.8.21-1.55.54-2.23.96l1.46 1.46c.27-.12.5-.24.77-.33z"/></svg>

<?xml version="1.0" encoding="UTF-8"?><!DOCTYPE svg PUBLIC "-//W3C//DTD SVG 1.1//EN" "http://www.w3.org/Graphics/SVG/1.1/DTD/svg11.dtd"><svg xmlns="http://www.w3.org/2000/svg" xmlns:xlink="http://www.w3.org/1999/xlink" version="1.1" id="mdi-sync-off" width="24" height="24" viewBox="0 0 24 24"><path d="M20,4H14V10L16.24,7.76C17.32,8.85 18,10.34 18,12C18,13 17.75,13.94 17.32,14.77L18.78,16.23C19.55,15 20,13.56 20,12C20,9.79 19.09,7.8 17.64,6.36L20,4M2.86,5.41L5.22,7.77C4.45,9 4,10.44 4,12C4,14.21 4.91,16.2 6.36,17.64L4,20H10V14L7.76,16.24C6.68,15.15 6,13.66 6,12C6,11 6.25,10.06 6.68,9.23L14.76,17.31C14.5,17.44 14.26,17.56 14,17.65V19.74C14.79,19.53 15.54,19.2 16.22,18.78L18.58,21.14L19.85,19.87L4.14,4.14L2.86,5.41M10,6.35V4.26C9.2,4.47 8.45,4.8 7.77,5.22L9.23,6.68C9.5,6.56 9.73,6.44 10,6.35Z" /></svg>
